!!!OTL: Van Diemen's Land
!!!ONM: 63.
**kern
*clefG2
*k[]
*C:
*M6/8
*MM84
{8d
=1
4c
8a
4g
8a
=2
4.f
4f
8A
=3
4G
8A
4c
8c
=4
4.c
4r}
{8e
=5
4g
8g
4e
8g
=6
4cc
8cc
4cc
8g
=7
4e
8a
(8a
8g)
8e
=8
4.g
4r}
{8g
=9
4e
8g
4g
8b
=10
4.cc
4cc
8e
=11
4g
8g
(8e
8c)
8e
=12
4.g
8r}
{8d
8c
=13
4A
8a
4g
8a
=14
4.f
4f
8A
=15
4G
8A
4c
8c
=16
2.c}
==
*-
!!!CNT: Folksongs of Maritime Canada
!!!MRD: 1928///-1932///
!!!OCL: Helen Creighton
!!!YOR: Songs and Ballads from Nova Scotia
!!!PPR: J.M. Dent & Sons, Limited
!!!PPP: Toronto, Canada
!!!PDT: 1932///
!!!reprint: Dover Publications, 1992: ISBN 0-486-21703-5
!!!ENC1: Craig Stuart Sapp (music and bibliographic data)                       
!!!ENC2: Marcus Pearce (phrase markings and key designations)                   
!!!ENC3: Darrell Conklin (phrase markings and key designations)   
!!!END: 2002/04/10/
!!!EEV: 2004/06/05
!!!MPN: Mr. Ben Henneberry
!!!PPG: 131
!!!EFL: 64/152
!!!ARE: Canada; Nova Scotia
!!!verses: 6
!!!VTS: 2475266099
